X: 1
T: Trip to Pakistan   [Bm]
R: Reel
C: Nial Kenny
D: Tannahill Weavers' "Capernaum" album.
S: Sarah Jane Summers - Falkirk Fiddle Workshop
S: Ted Hastings <ted:hastings.nu> scots-l 2000-11-28
M: 4/4
L: 1/8
K: Bm
|: (B>d) (f>B) d2 (d>f) | e2 (e>d) c>d   e>c  | (B>d) (f>B) d2  (d>f) | e>d c>d B2 B2 :|
|: (B>d) (f>B) g3     e | f3    a (f>e) (f>d) | (B>d) (f>B) g3     e  | f>e d>f e2 e2 :|
|: vc>d f>u(c d>f)  c>d | B>c d>(B c>d)  B>c  |  A>c  e>(A  c>e) A>c  | e>d c>d B2 B2 :|
